X: 30650
T: Ookpik
R: waltz
M: 3/4
K: Gmajor
|:(3DEF|G3FG3/2B/2|A2F2E3/2D/2|E2G3A|G2B2d2|
e3 de3/2f/2|e2d2B3/2A/2|B2d3e|d2g2f2|
e3 de3/2f/2|e2d2B3/2A/2|B2d2B3/2A/2|G2E2D2|
C3 DE3/2G/2|F2E2D3/2C/2|E2D2C2|B,4:|
B1d1|e2B3A|B4e2|d2B3A|B4B>^A|
=A3 GA3/2B/2|A2G2E3/2D/2|E2G3A|G2B2d2|
e2B3A|B4e2|d2B3A|B4B>^A|
=A3 GA3/2B/2|A2G2E3/2D/2|E2G2A2|F4|

